X: 5665
T: By Golly
R: jig
M: 6/8
K: Amixolydian
|:e|dcA GFG|Adc d2e|dcA GFG|AGE EFD|
dcA GFG|Adc def|efd e2d|cAG A2:|
d|efg efg|ege dcd|efg aba|age dcd|
efg efg|ege dcd|efd e2d|cAG A2d|
efg efg|ege dcd|efg aba|age dcd|
efg aba|age dcd|efd e2d|cAG A2||

